ix/copy_twotone.svg

<svg viewBox="0 0 24 24" fill="none" xmlns="http://www.w3.org/2000/svg" height="1em" width="1em">
  <path d="M16 12.9v4.2c0 3.5-1.4 4.9-4.9 4.9H6.9C3.4 22 2 20.6 2 17.1v-4.2C2 9.4 3.4 8 6.9 8h4.2c3.5 0 4.9 1.4 4.9 4.9Z" stroke="#292D32" stroke-width="1.5" stroke-linecap="round" stroke-linejoin="round"/>
  <path opacity=".4" d="M22 6.9v4.2c0 3.5-1.4 4.9-4.9 4.9H16v-3.1C16 9.4 14.6 8 11.1 8H8V6.9C8 3.4 9.4 2 12.9 2h4.2C20.6 2 22 3.4 22 6.9Z" stroke="#292D32" stroke-width="1.5" stroke-linecap="round" stroke-linejoin="round"/>
</svg>

<svg viewBox="0 0 24 24" fill="none" xmlns="http://www.w3.org/2000/svg" height="1em" width="1em">
  <path d="M16 12.9V17.1C16 20.6 14.6 22 11.1 22H6.9C3.4 22 2 20.6 2 17.1V12.9C2 9.4 3.4 8 6.9 8H11.1C14.6 8 16 9.4 16 12.9Z" stroke="#292D32" stroke-width="1.5" stroke-linecap="round" stroke-linejoin="round"/>
  <path opacity="0.4" d="M22 6.9V11.1C22 14.6 20.6 16 17.1 16H16V12.9C16 9.4 14.6 8 11.1 8H8V6.9C8 3.4 9.4 2 12.9 2H17.1C20.6 2 22 3.4 22 6.9Z" stroke="#292D32" stroke-width="1.5" stroke-linecap="round" stroke-linejoin="round"/>
</svg>
